X:70
T:Invercauld's Reel
S:Petrie's Second Collection of Strathspey Reels and Country Dances &c.
Z:Steve Wyrick , 6/11/04
N:Petrie's Second Collection, page 24
% Gore's Index gives earliest publication as John Hamilton's
% "A Choice Coll of Scots Reels, or C.C. & Str."  N.D., Petrie's may be older
L:1/8
M:C
R:Reel
K:G
B|D/D/D (EG) AGEG| D/D/D EG c3e |dBgB AGEG|D/D/D EG A3::B|
  cABG       AGEG|(TcBcd)   efge|dgBg AGEG|D/D/D EG A3:|
